X:1
T:G minor Daniel Belknap, 1800
T:Isaac Watts, 1709 (Hymn 28, Book 2)  86. 86. (C. M.)
T:Dissolution
T:Transcribed from The Evangelical Harmony, 1800.
%%score [ 1 2 3 4 ]
L:1/8
M:4/4
K:Bb
V:1 treble nm="Treble" snm="Tr"
V:2 treble nm="Counter" snm="C"
V:3 treble-8 nm="Tenor" snm="T"
V:4 bass nm="Bass" snm="B"
V:1
 G4 | B6 A2 | G2 A2 A2 AG | F6 G2 | A6 GA | B2 A2 G4- | G4 d4 | d2 B2 A2 c2 | B4 A4 | A6 BA | %10
w: ||||||||||
 G2 B4 A2 | G4 ^F4 | G8 | z4 G4 | ^F2 F2 F2 F2 | G4 A4 | B6 GA | (B2 G2) (G2 B2) | A4 G4 | ^F6 F2 | %20
w: |||Je-|sus, to thy dear|faith- ful|hand My *|na- * ked *|soul I|trust, *|
 GA Bc d2 dc | B2 AG A2 G2 | c3 c F2 G2 | A6 A2 | B2 B2 B2 c2 | dc de d2 c2 | B3 A G2 ^F2 | G8 |] %28
w: ||||||||
V:2
 D4 | D6 D2 | D2 F2 F2 F2 | F6 DE | F6 E2 | D2 D2 D4- | D4 D4 | G2 DE F2 FE | D4 F4 | F6 F2 | %10
w: And|must my|bo- dy faint and|die? And *|must this|soul re- move?~|_ O|for some * guar- dian *|an- gel|nigh To|
 G6 FE | D4 D4 | D8 | z8 | z8 | z8 | z8 | z8 | z8 | z4 z2 D2 | D2 D2 DE FE | D2 D2 D2 DE | %22
w: bear it *|safe a-|bove!|||||||And|my flesh waits * for *|thy com- mand to *|
 F3 F F2 B,C | D6 D2 | D2 D2 D2 F2 | G2 G2 GF E2 | D3 E D2 D2 | D8 |] %28
w: drop in- to my *|dust, And|my flesh waits for|thy com- mand * to|drop in- to my|dust.|
V:3
 G4 | G6 A2 | B2 d2 d2 c2 | B6 G2 | c6 BA | G2 ^F2 G4- | G4 B4 | G2 AB c2 A2 | B4 c4 | d6 dc | %10
w: ||||||||||
 B2 d4 c2 | B4 A4 | G8 | z4 B4 | A2 A2 A2 A2 | B4 c4 | d6 Bc | (d2 B2) (B2 d2) | c4 B4 | A6 A2 | %20
w: |||Je-|sus, to thy dear|faith- ful|hand My *|na- * ked *|soul I|trust, *|
 B2 BA G2 A2 | B2 c2 d2 B2 | A3 G F2 E2 | D6 D2 | G2 G2 G2 A2 | BA Bc B2 c2 | d3 c B2 A2 | G8 |] %28
w: ||||||||
V:4
 G,4 | G,6 ^F,2 | G,2 D,2 D,E, F,2 | B,,6 G,2 | F,6 G,2 | D,2 D,2 G,,4- | G,,4 G,4 | %7
 G,2 G,2 F,2 F,2 | G,4 F,2 E,2 | D,6 D,2 | G,6 C,2 | D,4 D,4 | G,,8 | z8 | z8 | z8 | z8 | z8 | z8 | %19
 z4 z2 D,2 | G,2 G,2 G,2 F,2 | G,2 F,E, D,2 D,2 | C,3 B,, A,,2 G,,2 | D,6 D,2 | %24
 G,,2 G,,2 G,,2 D,2 | G,2 G,2 G,2 ^F,2 | G,3 G, D,2 D,2 | G,,8 |] %28

